X: 062
T: Rothemurchue's Rand
R: strathtpey
M: C
L: 1/8
Z: 2010 John Chambers <jc:trillian.mit.edu>
B: Abraham Mackintosh "A Collection of Strathspeys, Reels, Jigs &c.", Newcastle, after 1797, p.6
F: http://imslp.info/files/imglnks/usimg/a/a8/IMSLP80796-PMLP164326-Abrahame2cckintosh_coll.pdf
K: C
V: 1
   G | E>DEC EG~G2 | c>GA>G c>GA>c | E>DE>C D>GG>c | A>cG>c [EC][DB,][DB,] :|
|: g | {f}e2d>c d>edA | c>ded e/d/c/B/ cG | A/A/A a>g {f}e2dc | AcGc [EC][DB,][DB,] :|
|: f | e<gg>a g>agd | e<aa>b a>bag | e>gd>e c>dec | Aag>e [ec][dB][dB] :|
   g | fedc d>ea2 | gee>d c2Ac | G>Ac>d {cd}e2d>c | A>cG>c [EC][DB,][DB,] ||
   g | fedc dea2 | geed ~c2 Ae/g/ | a<eg>d {f}e2dc | A>cG>c [EC][DB,][DB,] |]
V: 2 clef=bass middle=d
z | [e2c2][e2c2] [e2c2][d2B2] | [e2c2]c2 [e2c2]c2 | [e2c2][e2c2] [e2c2][e2c2] [f2c2][e2c2] g2G :|
|: z | [c2g4]de [f2a4]f2 | e2cB [cg4]de2 | f2fe c2de | [f2c2][e2c2] g2G :|
|: z | [e2c2][e2c2] [e2c2][d2B2] | [e2c2][e2c2] [e2c2][e2c2] | c2d2 e2c2 | f2ec g2G :|
   z | c2de f2f2 | e2g2 a2A2 | e2ed c2de | f2ec g2G2 ||
       c2de f2f2 | e2g2 a3z | c'2b2 agfe | f2ec g2G  |]

%%sep 2 1 500

